format-quote-close.svg

<svg fill="currentColor" viewBox="0 0 24 24"><path d="M14 17h3l2-4V7h-6v6h3M6 17h3l2-4V7H5v6h3z"/></svg>

<svg  viewBox="0 0 24 24" fill="currentColor"><path  d="M14,17H17L19,13V7H13V13H16M6,17H9L11,13V7H5V13H8L6,17Z"/></svg>
